assets/img/braze_icons/arrow-left.svg

<svg fill="none" height="24" viewBox="0 0 24 24" width="24" xmlns="http://www.w3.org/2000/svg"><path d="m12.7071 5.70711c.3905-.39053.3905-1.02369 0-1.41422-.3905-.39052-1.0237-.39052-1.4142 0l-7.00001 7.00001c-.39052.3905-.39052 1.0237 0 1.4142l7.00001 7c.3905.3905 1.0237.3905 1.4142 0s.3905-1.0237 0-1.4142l-5.29289-5.2929h11.58579c.5523 0 1-.4477 1-1s-.4477-1-1-1h-11.58579z" fill="#801ed7"/></svg>

<svg width="24" height="24" viewBox="0 0 24 24" fill="none" xmlns="http://www.w3.org/2000/svg">
<path d="M12.7071 5.70711C13.0976 5.31658 13.0976 4.68342 12.7071 4.29289C12.3166 3.90237 11.6834 3.90237 11.2929 4.29289L4.29289 11.2929C3.90237 11.6834 3.90237 12.3166 4.29289 12.7071L11.2929 19.7071C11.6834 20.0976 12.3166 20.0976 12.7071 19.7071C13.0976 19.3166 13.0976 18.6834 12.7071 18.2929L7.41421 13L19 13C19.5523 13 20 12.5523 20 12C20 11.4477 19.5523 11 19 11L7.41421 11L12.7071 5.70711Z" fill="#801ED7"/>
</svg>
